X: 18
T:Fairhaired Boy, The
M:6/8
L:1/8
S:Breathnach
R:Jig
K:ADor
A|EAA EAA |gfg edB|BAB edB|BAB GED|EAA EAA |gfg edB|BAB edB|BAG A2 :|
|d|eaa bag|eaa ged|BAB edB|BAB GED|eaa bag|eaa ged|BAB edB|BAG A2 d|
eaa bag|eaa ged|BAB edB|BAB GED|EAA EAA |gfg edB|BAB edB|BAG A2 ||
